app/assets/icons/polaris/BuyButtonVerticalLayoutMajor.svg

<svg viewBox="0 0 20 20" xmlns="http://www.w3.org/2000/svg"><path d="M3 3h1v-2h-1.5a1.5 1.5 0 0 0-1.5 1.5v1.5h2v-1zm14 0v1h2v-1.5a1.5 1.5 0 0 0-1.5-1.5h-1.5v2h1zm-14 13v1h1v2h-1.5a1.5 1.5 0 0 1-1.5-1.5v-1.5h2zm14 1h-1v2h1.5a1.5 1.5 0 0 0 1.5-1.5v-1.5h-2v1zm-16-11v3h2v-3h-2zm0 8v-3h2v3h-2zm16-8v3h2v-3h-2zm0 8v-3h2v3h-2zm-3-5v-6h-8v6h8zm-2 8h-6v-2h6v2zm-6-4h8v-2h-8v2z"/></svg>

<svg viewBox="0 0 20 20" xmlns="http://www.w3.org/2000/svg"><path d="M3 3h1V1H2.5A1.5 1.5 0 0 0 1 2.5V4h2V3zm14 0v1h2V2.5A1.5 1.5 0 0 0 17.5 1H16v2h1zM3 16v1h1v2H2.5A1.5 1.5 0 0 1 1 17.5V16h2zm14 1h-1v2h1.5a1.5 1.5 0 0 0 1.5-1.5V16h-2v1zM1 6v3h2V6H1zm0 8v-3h2v3H1zm16-8v3h2V6h-2zm0 8v-3h2v3h-2zm-3-5V3H6v6h8zm-2 8H6v-2h6v2zm-6-4h8v-2H6v2z"/></svg>
